X:487
%%etbk:tnset id:206,pos:1,rep:3x,ant:
%%etbk:pldat 2013-08-26T18:03
T: My Son John
M:4/4
R:song
L:1/8
K:Dmin
|:"dm"D2D2 D2D2|"F"F2F2 "C"G2G2|"dm"A2AA A2G2|A2D2D4-| 
-D8 | -D6A2 | "F"c2A2 A2F2|"C"G2G2 A4|
"dm"D2D2 D2CD|"F"F2F2 "C"G2AG | "dm"F2D2D4 | "F"FFFF"C"G4 | 
"dm"A2DD DDFG | F2E2D4|-D8|-D4:|


